Numix/32/mimetypes/image-x-pcx.svg

<?xml version="1.0" encoding="UTF-8" standalone="no"?>
<svg
   xmlns:dc="http://purl.org/dc/elements/1.1/"
   xmlns:cc="http://creativecommons.org/ns#"
   xmlns:rdf="http://www.w3.org/1999/02/22-rdf-syntax-ns#"
   xmlns:svg="http://www.w3.org/2000/svg"
   xmlns="http://www.w3.org/2000/svg"
   xmlns:sodipodi="http://sodipodi.sourceforge.net/DTD/sodipodi-0.dtd"
   xmlns:inkscape="http://www.inkscape.org/namespaces/inkscape"
   width="32"
   height="32"
   viewBox="0 0 32 32"
   id="svg2"
   version="1.1"
   inkscape:version="0.91 r13725"
   sodipodi:docname="image-x-pcx.svg">
  <metadata
     id="metadata26">
    <rdf:RDF>
      <cc:Work
         rdf:about="">
        <dc:format>image/svg+xml</dc:format>
        <dc:type
           rdf:resource="http://purl.org/dc/dcmitype/StillImage" />
        <dc:title></dc:title>
      </cc:Work>
    </rdf:RDF>
  </metadata>
  <defs
     id="defs24" />
  <sodipodi:namedview
     pagecolor="#ffffff"
     bordercolor="#666666"
     borderopacity="1"
     objecttolerance="10"
     gridtolerance="10"
     guidetolerance="10"
     inkscape:pageopacity="0"
     inkscape:pageshadow="2"
     inkscape:window-width="1366"
     inkscape:window-height="704"
     id="namedview22"
     showgrid="false"
     inkscape:zoom="1"
     inkscape:cx="19.125569"
     inkscape:cy="3.5229041"
     inkscape:window-x="0"
     inkscape:window-y="27"
     inkscape:window-maximized="1"
     inkscape:current-layer="svg2">
    <inkscape:grid
       type="xygrid"
       id="grid3257" />
  </sodipodi:namedview>
  <path
     style="fill:#38a34e;fill-opacity:1"
     d="M 5.335888,2.965e-4 C 4.648414,3.115e-4 4,0.6767875 4,1.3940305 L 4,30.606268 C 4,31.282757 4.687474,32 5.335888,32 l 21.327331,0 c 0.648414,0 1.335888,-0.717243 1.335888,-1.393732 L 28,8.999999 19,-5.0000001e-7 z"
     id="path4-1"
     inkscape:connector-curvature="0"
     sodipodi:nodetypes="ssssssccs" />
  <path
     style="fill:#000000;fill-opacity:0.19599998"
     d="m 20.999999,8.999999 7,7.000001 0,-7.000001 z"
     id="path6-4"
     inkscape:connector-curvature="0"
     sodipodi:nodetypes="cccc" />
  <path
     style="fill:#ffffff;fill-opacity:0.39200003"
     d="m 19.000305,2.965e-4 8.991594,8.9997025 -7.613262,0 c -0.672951,0 -1.378332,-0.713489 -1.378332,-1.3864398 z"
     id="path8-6"
     inkscape:connector-curvature="0"
     sodipodi:nodetypes="ccssc" />
  <path
     style="fill:#ffffff"
     d="m 11.644779,10.999946 c -0.351641,0.03296 -0.652001,0.406447 -0.644676,0.801908 l 0,8.414521 c 0.0037,0.41377 0.333328,0.787261 0.703283,0.783598 l 8.611547,0 c 0.362631,-0.0072 0.681306,-0.373491 0.684968,-0.783598 l 0,-8.414521 c 0.0073,-0.417431 -0.315011,-0.798245 -0.684968,-0.801908 z M 12,12 l 8,0 0,5.700547 -2.351679,-2.658114 -1.490813,1.387774 L 14.19418,13.969563 12,16.799413 Z"
     id="path10"
     inkscape:connector-curvature="0"
     sodipodi:nodetypes="ccccccccccccccccc" />
  <path
     style="fill:#000000;fill-opacity:0.19599998"
     d="m 4,24 0,6.667969 C 4,31.316407 4.6875,32 5.332031,32 l 21.335938,0 C 27.3125,32 28,31.316407 28,30.667969 L 28,24 z"
     id="path3011"
     inkscape:connector-curvature="0" />
  <path
     style="fill:#ffffff"
     inkscape:connector-curvature="0"
     id="path20"
     d="m 10.628601,24.946713 c 0.750744,0 1.334656,0.157084 1.747764,0.471252 C 12.793446,25.727646 13,26.239295 13,26.943931 c 0,0.7181 -0.210525,1.234235 -0.631579,1.557381 -0.41708,0.314169 -1.004965,0.47574 -1.771598,0.47574 l -0.486823,0 0,2.019661 -1.11,0 0,-5.90638 c 0.580951,-0.118423 1.088046,-0.12074 1.628601,-0.143447 m 0.131081,1.03227 c -0.204505,-0.0046 -0.445458,0.02024 -0.649682,0.03124 l 0,1.929897 0.546404,0 c 0.37736,0 0.659385,-0.07182 0.850051,-0.219919 0.190666,-0.157086 0.285998,-0.417395 0.285998,-0.785421 0,-0.345589 -0.09533,-0.592436 -0.285998,-0.731567 -0.182721,-0.148109 -0.432968,-0.224407 -0.746773,-0.224407"
     sodipodi:nodetypes="ccscsccccccccscscc" />
  <path
     style="fill:#ffffff"
     inkscape:connector-curvature="0"
     id="path16"
     d="M 22.110124,31 C 21.778579,30.193083 21.389942,29.434002 21.022202,28.703591 20.600303,29.486294 20.250412,30.231857 19.894317,31 L 18.5,31 c 0.514469,-1.101617 1.183694,-2.13619 1.798401,-3.171887 L 18.606571,25 19.996448,25 21.022202,26.920551 22.101243,25 l 1.296625,0 -1.651864,2.800611 C 22.444534,28.835561 22.999394,29.889115 23.5,31 l -1.389876,0"
     sodipodi:nodetypes="ccccccccccccc" />
  <path
     style="fill:#ffffff"
     inkscape:connector-curvature="0"
     id="path3045"
     d="m 16.177045,31.049992 c -0.836446,0 -1.473735,-0.263663 -1.915856,-0.795457 C 13.819069,29.72721 13.6,28.976442 13.6,27.997762 c 0,-0.482637 0.06771,-0.916116 0.203134,-1.2915 0.131444,-0.379853 0.318645,-0.697142 0.553647,-0.956335 0.242969,-0.263663 0.525765,-0.460294 0.852376,-0.59436 C 15.543735,25.017033 15.902213,24.95 16.292552,24.95 c 0.211104,0 0.398308,0.01788 0.565596,0.05363 0.171272,0.03127 0.322628,0.0715 0.450088,0.11619 0.127455,0.04469 0.234999,0.08939 0.314661,0.138536 0.09162,0.05362 0.159322,0.08938 0.203136,0.116188 l -0.306695,0.925054 c -0.147373,-0.09385 -0.326611,-0.174286 -0.537714,-0.236848 -0.203139,-0.06703 -0.438138,-0.102781 -0.708985,-0.102781 -0.183223,0 -0.366443,0.03576 -0.545682,0.102781 -0.171272,0.06256 -0.32661,0.174285 -0.470002,0.330696 -0.13144,0.151941 -0.242967,0.357508 -0.334575,0.612232 -0.08365,0.259195 -0.123477,0.580951 -0.123477,0.965274 0,0.665859 0.115509,1.179779 0.342544,1.541757 0.238983,0.348571 0.621358,0.527325 1.151105,0.527325 0.306698,0 0.55763,-0.03576 0.756782,-0.10278 0.203139,-0.0715 0.366444,-0.138534 0.489918,-0.210036 L 17.834,30.643333 c -0.163306,0.102781 -0.390341,0.196629 -0.677122,0.286006 C 16.874082,31.009778 16.54747,31.05 16.177045,31.05" />
</svg>

<svg xmlns="http://www.w3.org/2000/svg" viewBox="0 0 32 32">
 <path d="m 5.336 0 c -0.687 0 -1.336 0.676 -1.336 1.394 l 0 29.21 c 0 0.676 0.687 1.394 1.336 1.394 l 21.327 0 c 0.648 0 1.336 -0.717 1.336 -1.394 l 0.001 -21.606 -9 -9 z" style="fill:#38a34e;fill-opacity:1"/>
 <path d="m 21 9 7 7 0 -7 z" style="fill:#000;fill-opacity:0.196"/>
 <path d="m 19 0 8.992 9 -7.613 0 c -0.673 0 -1.378 -0.713 -1.378 -1.386 z" style="fill:#fff;fill-opacity:0.392"/>
 <path d="m 11.645 11 c -0.352 0.033 -0.652 0.406 -0.645 0.802 l 0 8.415 c 0.004 0.414 0.333 0.787 0.703 0.784 l 8.612 0 c 0.363 -0.007 0.681 -0.373 0.685 -0.784 l 0 -8.415 c 0.007 -0.417 -0.315 -0.798 -0.685 -0.802 z m 0.355 1 l 8 0 0 5.701 -2.352 -2.658 -1.491 1.388 l -1.963 -2.461 -2.194 2.83" style="fill:#fff"/>
 <path d="m 4 24 0 6.668 c 0 0.648 0.688 1.332 1.332 1.332 l 21.336 0 c 0.645 0 1.332 -0.684 1.332 -1.332 l 0 -6.668 z" style="fill:#000;fill-opacity:0.196"/>
 <path d="m 10.629 24.947 c 0.751 0 1.335 0.157 1.748 0.471 c 0.417 0.31 0.624 0.821 0.624 1.526 c 0 0.718 -0.211 1.234 -0.632 1.557 -0.417 0.314 -1 0.476 -1.772 0.476 l -0.487 0 0 2.02 -1.11 0 0 -5.906 c 0.581 -0.118 1.088 -0.121 1.629 -0.143 m 0.131 1.032 c -0.205 -0.005 -0.445 0.02 -0.65 0.031 l 0 1.93 0.546 0 c 0.377 0 0.659 -0.072 0.85 -0.22 0.191 -0.157 0.286 -0.417 0.286 -0.785 0 -0.346 -0.095 -0.592 -0.286 -0.732 -0.183 -0.148 -0.433 -0.224 -0.747 -0.224" style="fill:#fff"/>
 <path d="m 22.11 31 c -0.332 -0.807 -0.72 -1.566 -1.088 -2.296 -0.422 0.783 -0.772 1.528 -1.128 2.296 l -1.394 0 c 0.514 -1.102 1.184 -2.136 1.798 -3.172 l -1.692 -2.828 1.39 0 1.026 1.921 1.079 -1.921 l 1.297 0 -1.652 2.801 c 0.699 1.035 1.253 2.089 1.754 3.199 l -1.39 0" style="fill:#fff"/>
 <path d="m 16.177 31.05 c -0.836 0 -1.474 -0.264 -1.916 -0.795 c -0.442 -0.527 -0.661 -1.278 -0.661 -2.257 c 0 -0.483 0.068 -0.916 0.203 -1.291 0.131 -0.38 0.319 -0.697 0.554 -0.956 0.243 -0.264 0.526 -0.46 0.852 -0.594 c 0.335 -0.139 0.693 -0.206 1.083 -0.206 c 0.211 0 0.398 0.018 0.566 0.054 0.171 0.031 0.323 0.072 0.45 0.116 0.127 0.045 0.235 0.089 0.315 0.139 0.092 0.054 0.159 0.089 0.203 0.116 l -0.307 0.925 c -0.147 -0.094 -0.327 -0.174 -0.538 -0.237 -0.203 -0.067 -0.438 -0.103 -0.709 -0.103 -0.183 0 -0.366 0.036 -0.546 0.103 -0.171 0.063 -0.327 0.174 -0.47 0.331 -0.131 0.152 -0.243 0.358 -0.335 0.612 -0.084 0.259 -0.123 0.581 -0.123 0.965 0 0.666 0.116 1.18 0.343 1.542 0.239 0.349 0.621 0.527 1.151 0.527 0.307 0 0.558 -0.036 0.757 -0.103 0.203 -0.072 0.366 -0.139 0.49 -0.21 l 0.295 0.916 c -0.163 0.103 -0.39 0.197 -0.677 0.286 c -0.283 0.08 -0.609 0.121 -0.98 0.121" style="fill:#fff"/>
</svg>
